!!!OTL: FROHE STUNDEN GIBTS IM LEBEN
!!!ARE: Europa, Mitteleuropa, Deutschland
!!!SCT: F0259
!!!YEM: Copyright 1995, estate of Helmut Schaffrath.
**kern
*ICvox
*Ivox
*M3/4
*k[f#]
*G:
{8.b
16a
=1
4.g
8a
8b
8cc
=2
4b
4a}
{8.cc
16b
=3
4.a
8a
8.b
16cc#
=4
4dd
4r}
{8.dd
16cc
=5
4.b
8ffn
8ee
8dd
=6
4dd
4cc}
{8cc
8cc
=7
4.ee
8dd
8cc
8b
=8
2a
4r}
=9
{8.g
16f#
8g
8a
8b
8cc
=10
4dd
4gg
4ee}
=11
{8.dd
16ee
8dd
8cc
8b
8a
=12
4g
4r}
==
!!!AGN: Jugend - Lied, Belehrung, Moral, religioes
!!!ONB: ESAC (Essen Associative Code) Database: FINK
!!!AMT: simple triple
!!!AIN: vox
!!!EED: Helmut Schaffrath
!!!EEV: 1.0
*-
